images/skl.svg

<svg height="250" viewBox="0 0 250 250" width="250" xmlns="http://www.w3.org/2000/svg"><g fill-rule="evenodd"><path d="m126.246094 10.046875c15.324218.03125 30.082031 2.824219 44.371094 8.460937 8.472656 3.339844 16.152343 7.933594 23.726562 12.882813 9.265625 6.050781 16.730469 13.898437 23.789062 22.285156 15.199219 18.050781 22.503907 39.121094 24.660157 62.34375.390625 4.183594 1.078125 8.308594.683593 12.523438-2.117187 22.527343-8.003906 43.8125-21.851562 62.128906-6.851562 9.066406-14.589844 17.472656-23.875 24.210937-14.082031 10.210938-29.507812 17.601563-46.621094 21.039063-23.953125 4.808594-47.328125 2.949219-70.089844-6.3125-8.703124-3.539063-16.582031-8.332031-24.328124-13.550781-9.179688-6.191406-16.542969-14.128906-23.429688-22.648438-17.394531-21.53125-24.542969-46.429687-23.695312-73.71875.691406-22.273437 7.449218-42.808594 20.589843-60.855468 6.679688-9.171876 14.335938-17.675782 23.582031-24.488282 21.546876-15.871094 45.597657-24.328125 72.488282-24.300781zm-67.117188 114.160156c0 21.976563.046875 43.953125-.058594 65.925781-.011718 2.523438.558594 3.222657 3.167969 3.214844 38.953125-.09375 77.902344-.0625 116.855469-.0625.472656 0 .949219-.054687 1.414062.007813 1.269532.171875 1.59375-.390625 1.566407-1.597657-.070313-3.394531-.234375-6.808593.042969-10.179687.21875-2.640625-.753907-3.011719-3.121094-3.003906-33.480469.078125-66.960938.039062-100.441406.089843-2.046876.003907-2.890626-.277343-2.882813-2.679687.089844-34.425781.085937-68.847656.011719-103.273437-.003906-2.203126.519531-2.824219 2.78125-2.8125 19.617187.097656 39.234375.054687 58.851562.054687 14.144532 0 28.292969-.03125 42.441406.042969 1.808594.007812 2.4375-.398438 2.339844-2.296875-.167968-3.195313-.214844-6.421875.007813-9.613281.167969-2.382813-.582031-2.910157-2.925781-2.90625-39.042969.078124-78.089844.078124-117.136719 0-2.304688-.003907-2.984375.488281-2.972657 2.886718.101563 22.066406.058594 44.132813.058594 66.203125zm86.238282 16.34375c.9375 9.683594 5.785156 16.898438 13.796874 21.269531 13.699219 7.472657 28.152344 7.140626 42.15625.917969 9.78125-4.347656 14.6875-14.617187 13.292969-24.945312-1.480469-10.949219-7.761719-17.550781-19.226562-19.960938-7.640625-1.605469-15.335938-2.953125-22.984375-4.515625-3.988282-.816406-6.582032-3.472656-6.984375-6.8125-.445313-3.671875 1.199219-6.675781 4.699219-8.570312 2.371093-1.28125 5.015624-1.8125 7.601562-1.886719 7.058594-.203125 14.035156.113281 16.890625 8.445313.269531.785156.859375.878906 1.566406.875 4.8125-.011719 9.625-.046876 14.433594.019531 1.414063.023437 1.519531-.566407 1.285156-1.707031-1.355469-6.625-4.296875-12.425782-10.046875-16.113282-11.679687-7.484375-24.308594-7.695312-37.15625-3.679687-8.527344 2.667969-13.960937 8.917969-16.363281 17.195312-3.074219 10.601563 3.351563 21.316407 13.171875 25.3125 4.859375 1.976563 10.035156 2.441407 15.109375 3.40625 4.796875.914063 9.757813 1.191407 14.320313 3.0625 2.972656 1.214844 5.492187 3.140625 6.449218 6.480469 1.429688 4.972656-1.191406 8.757812-6.34375 11.351562-4.363281 2.199219-9.148437 2.144532-13.855468 1.542969-6.820313-.875-12.628907-3.292969-14.40625-10.898437-.183594-.792969-.707032-.78125-1.257813-.78125-5.359375-.011719-10.71875-.007813-16.148437-.007813zm0 0" fill="#010101"/><g fill="#fcfcfc"><path d="m59.128906 124.207031c0-22.070312.042969-44.136719-.054687-66.207031-.011719-2.394531.667969-2.886719 2.972656-2.882812 39.042969.074218 78.089844.078124 117.136719-.003907 2.34375-.003906 3.09375.523438 2.925781 2.910157-.226563 3.1875-.175781 6.414062-.011719 9.613281.101563 1.894531-.53125 2.304687-2.339844 2.292969-14.144531-.074219-28.292968-.042969-42.441406-.042969-19.617187 0-39.234375.042969-58.851562-.054688-2.257813-.007812-2.78125.609375-2.777344 2.8125.070312 34.425781.078125 68.851563-.011719 103.273438-.007812 2.402343.835938 2.683593 2.878907 2.679687 33.480468-.050781 66.964843-.011718 100.445312-.089844 2.367188-.003906 3.339844.363282 3.121094 3.003907-.28125 3.375-.113282 6.789062-.042969 10.179687.023437 1.207032-.300781 1.769532-1.570313 1.597656-.460937-.0625-.941406-.007812-1.410156-.007812-38.953125 0-77.90625-.03125-116.855468.066406-2.613282.003906-3.183594-.695312-3.171876-3.21875.105469-21.96875.058594-43.945312.058594-65.921875zm0 0"/><path d="m145.367188 140.550781c5.429687 0 10.789062-.003906 16.148437.007813.550781 0 1.074219-.011719 1.257813.78125 1.777343 7.605468 7.582031 10.023437 14.40625 10.898437 4.707031.601563 9.492187.65625 13.851562-1.542969 5.152344-2.59375 7.773438-6.378906 6.347656-11.351562-.960937-3.339844-3.480468-5.265625-6.449218-6.480469-4.5625-1.871093-9.523438-2.152343-14.320313-3.0625-5.078125-.964843-10.25-1.429687-15.113281-3.40625-9.816406-3.996093-16.246094-14.710937-13.167969-25.3125 2.402344-8.277343 7.835937-14.527343 16.363281-17.195312 12.847656-4.015625 25.476563-3.804688 37.152344 3.679687 5.753906 3.6875 8.695312 9.488282 10.050781 16.113282.230469 1.140624.128907 1.730468-1.289062 1.707031-4.808594-.066407-9.617188-.03125-14.429688-.019531-.710937 0-1.296875-.089844-1.566406-.875-2.859375-8.332032-9.832031-8.648438-16.890625-8.445313-2.585938.074219-5.230469.605469-7.601562 1.886719-3.5 1.890625-5.144532 4.898437-4.703126 8.570312.40625 3.339844 3 5.996094 6.988282 6.8125 7.648437 1.5625 15.34375 2.910156 22.980468 4.515625 11.46875 2.410157 17.746094 9.011719 19.226563 19.960938 1.398437 10.328125-3.507813 20.597656-13.292969 24.945312-14 6.222657-28.453125 6.554688-42.152344-.917969-8.011718-4.371093-12.859374-11.585937-13.796874-21.269531zm0 0"/></g></g></svg>

<svg xmlns="http://www.w3.org/2000/svg" xmlns:xlink="http://www.w3.org/1999/xlink" width="250px" height="250px" viewBox="0 0 250 250" version="1.1">
<g id="surface1">
<path style=" stroke:none;fill-rule:evenodd;fill:rgb(0.392157%,0.392157%,0.392157%);fill-opacity:1;" d="M 126.246094 10.046875 C 141.570312 10.078125 156.328125 12.871094 170.617188 18.507812 C 179.089844 21.847656 186.769531 26.441406 194.34375 31.390625 C 203.609375 37.441406 211.074219 45.289062 218.132812 53.675781 C 233.332031 71.726562 240.636719 92.796875 242.792969 116.019531 C 243.183594 120.203125 243.871094 124.328125 243.476562 128.542969 C 241.359375 151.070312 235.472656 172.355469 221.625 190.671875 C 214.773438 199.738281 207.035156 208.144531 197.75 214.882812 C 183.667969 225.09375 168.242188 232.484375 151.128906 235.921875 C 127.175781 240.730469 103.800781 238.871094 81.039062 229.609375 C 72.335938 226.070312 64.457031 221.277344 56.710938 216.058594 C 47.53125 209.867188 40.167969 201.929688 33.28125 193.410156 C 15.886719 171.878906 8.738281 146.980469 9.585938 119.691406 C 10.277344 97.417969 17.035156 76.882812 30.175781 58.835938 C 36.855469 49.664062 44.511719 41.160156 53.757812 34.347656 C 75.304688 18.476562 99.355469 10.019531 126.246094 10.046875 Z M 59.128906 124.207031 C 59.128906 146.183594 59.175781 168.160156 59.070312 190.132812 C 59.058594 192.65625 59.628906 193.355469 62.238281 193.347656 C 101.191406 193.253906 140.140625 193.285156 179.09375 193.285156 C 179.566406 193.285156 180.042969 193.230469 180.507812 193.292969 C 181.777344 193.464844 182.101562 192.902344 182.074219 191.695312 C 182.003906 188.300781 181.839844 184.886719 182.117188 181.515625 C 182.335938 178.875 181.363281 178.503906 178.996094 178.511719 C 145.515625 178.589844 112.035156 178.550781 78.554688 178.601562 C 76.507812 178.605469 75.664062 178.324219 75.671875 175.921875 C 75.761719 141.496094 75.757812 107.074219 75.683594 72.648438 C 75.679688 70.445312 76.203125 69.824219 78.464844 69.835938 C 98.082031 69.933594 117.699219 69.890625 137.316406 69.890625 C 151.460938 69.890625 165.609375 69.859375 179.757812 69.933594 C 181.566406 69.941406 182.195312 69.535156 182.097656 67.636719 C 181.929688 64.441406 181.882812 61.214844 182.105469 58.023438 C 182.273438 55.640625 181.523438 55.113281 179.179688 55.117188 C 140.136719 55.195312 101.089844 55.195312 62.042969 55.117188 C 59.738281 55.113281 59.058594 55.605469 59.070312 58.003906 C 59.171875 80.070312 59.128906 102.136719 59.128906 124.207031 Z M 145.367188 140.550781 C 146.304688 150.234375 151.152344 157.449219 159.164062 161.820312 C 172.863281 169.292969 187.316406 168.960938 201.320312 162.738281 C 211.101562 158.390625 216.007812 148.121094 214.613281 137.792969 C 213.132812 126.84375 206.851562 120.242188 195.386719 117.832031 C 187.746094 116.226562 180.050781 114.878906 172.402344 113.316406 C 168.414062 112.5 165.820312 109.84375 165.417969 106.503906 C 164.972656 102.832031 166.617188 99.828125 170.117188 97.933594 C 172.488281 96.652344 175.132812 96.121094 177.71875 96.046875 C 184.777344 95.84375 191.753906 96.160156 194.609375 104.492188 C 194.878906 105.277344 195.46875 105.371094 196.175781 105.367188 C 200.988281 105.355469 205.800781 105.320312 210.609375 105.386719 C 212.023438 105.410156 212.128906 104.820312 211.894531 103.679688 C 210.539062 97.054688 207.597656 91.253906 201.847656 87.566406 C 190.167969 80.082031 177.539062 79.871094 164.691406 83.886719 C 156.164062 86.554688 150.730469 92.804688 148.328125 101.082031 C 145.253906 111.683594 151.679688 122.398438 161.5 126.394531 C 166.359375 128.371094 171.535156 128.835938 176.609375 129.800781 C 181.40625 130.714844 186.367188 130.992188 190.929688 132.863281 C 193.902344 134.078125 196.421875 136.003906 197.378906 139.34375 C 198.808594 144.316406 196.1875 148.101562 191.035156 150.695312 C 186.671875 152.894531 181.886719 152.839844 177.179688 152.238281 C 170.359375 151.363281 164.550781 148.945312 162.773438 141.339844 C 162.589844 140.546875 162.066406 140.558594 161.515625 140.558594 C 156.15625 140.546875 150.796875 140.550781 145.367188 140.550781 Z M 145.367188 140.550781 "/>
<path style=" stroke:none;fill-rule:evenodd;fill:rgb(98.823529%,98.823529%,98.823529%);fill-opacity:1;" d="M 59.128906 124.207031 C 59.128906 102.136719 59.171875 80.070312 59.074219 58 C 59.0625 55.605469 59.742188 55.113281 62.046875 55.117188 C 101.089844 55.191406 140.136719 55.195312 179.183594 55.113281 C 181.527344 55.109375 182.277344 55.636719 182.109375 58.023438 C 181.882812 61.210938 181.933594 64.4375 182.097656 67.636719 C 182.199219 69.53125 181.566406 69.941406 179.757812 69.929688 C 165.613281 69.855469 151.464844 69.886719 137.316406 69.886719 C 117.699219 69.886719 98.082031 69.929688 78.464844 69.832031 C 76.207031 69.824219 75.683594 70.441406 75.6875 72.644531 C 75.757812 107.070312 75.765625 141.496094 75.675781 175.917969 C 75.667969 178.320312 76.511719 178.601562 78.554688 178.597656 C 112.035156 178.546875 145.519531 178.585938 179 178.507812 C 181.367188 178.503906 182.339844 178.871094 182.121094 181.511719 C 181.839844 184.886719 182.007812 188.300781 182.078125 191.691406 C 182.101562 192.898438 181.777344 193.460938 180.507812 193.289062 C 180.046875 193.226562 179.566406 193.28125 179.097656 193.28125 C 140.144531 193.28125 101.191406 193.25 62.242188 193.347656 C 59.628906 193.351562 59.058594 192.652344 59.070312 190.128906 C 59.175781 168.160156 59.128906 146.183594 59.128906 124.207031 Z M 59.128906 124.207031 "/>
<path style=" stroke:none;fill-rule:evenodd;fill:rgb(98.823529%,98.823529%,98.823529%);fill-opacity:1;" d="M 145.367188 140.550781 C 150.796875 140.550781 156.15625 140.546875 161.515625 140.558594 C 162.066406 140.558594 162.589844 140.546875 162.773438 141.339844 C 164.550781 148.945312 170.355469 151.363281 177.179688 152.238281 C 181.886719 152.839844 186.671875 152.894531 191.03125 150.695312 C 196.183594 148.101562 198.804688 144.316406 197.378906 139.34375 C 196.417969 136.003906 193.898438 134.078125 190.929688 132.863281 C 186.367188 130.992188 181.40625 130.710938 176.609375 129.800781 C 171.53125 128.835938 166.359375 128.371094 161.496094 126.394531 C 151.679688 122.398438 145.25 111.683594 148.328125 101.082031 C 150.730469 92.804688 156.164062 86.554688 164.691406 83.886719 C 177.539062 79.871094 190.167969 80.082031 201.84375 87.566406 C 207.597656 91.253906 210.539062 97.054688 211.894531 103.679688 C 212.125 104.820312 212.023438 105.410156 210.605469 105.386719 C 205.796875 105.320312 200.988281 105.355469 196.175781 105.367188 C 195.464844 105.367188 194.878906 105.277344 194.609375 104.492188 C 191.75 96.160156 184.777344 95.84375 177.71875 96.046875 C 175.132812 96.121094 172.488281 96.652344 170.117188 97.933594 C 166.617188 99.824219 164.972656 102.832031 165.414062 106.503906 C 165.820312 109.84375 168.414062 112.5 172.402344 113.316406 C 180.050781 114.878906 187.746094 116.226562 195.382812 117.832031 C 206.851562 120.242188 213.128906 126.84375 214.609375 137.792969 C 216.007812 148.121094 211.101562 158.390625 201.316406 162.738281 C 187.316406 168.960938 172.863281 169.292969 159.164062 161.820312 C 151.152344 157.449219 146.304688 150.234375 145.367188 140.550781 Z M 145.367188 140.550781 "/>
</g>
</svg>
